packages/ui-icons/svg/Solid/trouble.svg

<svg viewBox="0 0 1920 1920" version="1.1" xmlns="http://www.w3.org/2000/svg">
    <path d="M1359.36,1279.51059 L1279.51059,1359.36 L960,1039.84941 L640.602353,1359.36 L560.752941,1279.51059 L880.150588,960 L560.752941,640.602353 L640.602353,560.752941 L960,880.150588 L1279.51059,560.752941 L1359.36,640.602353 L1039.84941,960 L1359.36,1279.51059 Z M960,0 C430.644706,0 0,430.644706 0,960 C0,1489.35529 430.644706,1920 960,1920 C1489.35529,1920 1920,1489.35529 1920,960 C1920,430.644706 1489.35529,0 960,0 L960,0 Z" stroke="none" stroke-width="1" fill-rule="evenodd"/>
</svg>

<svg viewBox="0 0 1920 1920" xmlns="http://www.w3.org/2000/svg">
    <path d="m1359.36 1279.51-79.85 79.85L960 1039.85l-319.398 319.51-79.85-79.85L880.152 960 560.753 640.602l79.85-79.85L960 880.152l319.51-319.398 79.85 79.85L1039.85 960l319.51 319.51ZM960 0C430.645 0 0 430.645 0 960s430.645 960 960 960 960-430.645 960-960S1489.355 0 960 0Z" fill-rule="evenodd"/>
</svg>
